X: 4
T: The Ruined Old Cottage In The Glen
R: reel
M: 4/4
L: 1/8
K: Dmaj
A || B2 AF DEFA | (3Bcd Ad Bdef | dBAF DEFA |BdAF FEEA || B2 AF DEFA | (3Bcd Ad Bdef | dBAF DEFA |Bd AF FE E2 ||| Beed AddA|Beef gfed | Beed (3Bcd ef | dBAF FEE2 || Beed AddA | Beef g3a | bgaf gfef | dBAF FE E2 ||


Tune 557	Setting 25743

